X:138
T: TRARIRO DER SOMMER DER IST DO
N: E1219
O: Europa, Mitteleuropa, Deutschland, Rheinpfalz
R: Ansinge -, Brauchtums - Lied, Kirchen - Fest, Sommer - Tags - Lied
M: 2/4
L: 1/16
K: F
 | c4d4 | c4z2
A2 | c2c2d2d2 | c4z2
A2 | G2A2B2G2 | A3Bc2
A2 | G2A2B2G2 | A3Bc4 |
c4d4 | c4z2
B2 | A2A2G2G2 | F4z4

@@@ Tune index: 4822
